X:166
T:Condon's Frolics
R:jig
Z:transcribed by Dave Marshall
M:6/8
K:Edor
|: BEF G2A | BAG FED | BEF G2A | ~B3 Bcd |
BEF G2A | BAG FGE | DFA dAF | ~E3 E2B :|
|: Bee BdB | BAG FED | ~G3 AGA | B2A Bcd |
Bee BdB | BAG FGE | DFA dAF | ~E3 E2B :|
